X:29
T:Hen Wlad fy Nhadau - Land of my Fathers
M:3/4
L:1/4
Q:55
C:James James 1833 - 1902
R:Anthem
K:D
D | F E D | A G F | d d B/2c/2 | d2 B | A F D | D C D | F E E | E2 A |
A A F/2G/2 | A A B/2c/2 | d d B/2c/2 | d2 B | A F D | E F E | D3- | D3 ||
A3 | d3 | A F D | D C D | E2 A | A2 F/2G/2 | A2 d | d2 B/2c/2 | d2 B |
A F D | E F E | D2 ||
